X: 3095
T: Bear Dance, The
R: polka
M: 2/4
K: Eminor
|:BE E/F/G/A/|BE E2|GG FG|~A2 GA|
BG AF|GE F2|EB AF|E2 E2:|
|:E/F/G E/F/G|FD D2|E/F/G E/F/G|~A2 GA|
BG AF|GE F2|EB AF|E2 E2:|

